X:1
T:Cor mio dolente
T:Giovanni Animuccia
T:Source : Secondo libro delle Laude spirituali a tre et a quattro voci---Roma---A.Gardano---1583. Editor : André Vierendeels (28/11/17). Notes : Original clefs : G2, C1, C3 Editorial accidentals above the staff Music compiled by Francisco Soto de Langa
T:Cor mio dolente
T:©
T:©
C:Giovanni Animuccia
Z:©
%%score [ 1 2 3 ]
L:1/8
Q:1/4=120
M:2/2
K:C
V:1 treble nm="Soprano 1" snm="S 1"
V:2 treble nm="Soprano 2" snm="S 2"
V:3 treble-8 nm="Tenor" snm="T"
V:1
"^1)" A8 | A4 A2 B2- | B2 c2 B4 | c4 z2 A2 | c3 d e2 c2 | B2 c2 A4- | A2 A2 d4 | c8 :: B4 B4 | %9
w: Cor|mio do- len-|* t'è tri-|sto, và|con la Ma- da-|le- n'à piè|_ di Chri-|sto.|I- bi|
w: Ne|ti par- tir|_ fin, tan-|to che|di- ca'io ti per-|do- no'as- ciu-|* ga'il pian-|to.|Ahi che|
 B2 c4 B2 | A4 G4 | z2 B2 c2 c2 | d2 d2 e3 e | e2 d2 c4 | B2 d2 d3 c | B2 A2 B4 | A8 :| %17
w: t'as- si- d'et|pia- gni,|fin che tut-|ti di la- gri-|me li ba-|gni, di la- gri-|me li ba-|gni.|
w: tra'l em- pia|sor- te,|son po- sto|di co- lor che|van- no'à mor-|te, che van- no'à|mor- * *|te.|
V:2
"^2)""^1)" E8 |"^-natural" F4 F2 ^G2- | G2 A4 ^G2 | A2 E2 F3 G | A2 A2 G4- | G2 G2 F2 E2 | %6
w: Cor|mio do- len-|* t'è tri-|sto, và con la|Ma- da- le-|* n'à pie di|
w: O,|al- ma mia|_ do- len-|te, che ti fe|schia- va di|_ ne- mi- ca|
"^-natural" FG A3 ^G/^F/ G2 | A8 :: ^G4 G4 |"^-natural" ^G2 A4 G2 | C2 D2 E4 | z2 G2 A2 c2 | %12
w: Chri- * * * * *|sto.|I- bi|t'as- si- d'et|pia- * gni,|fin che tut-|
w: gen- * * * * *|te,|Gia non|ve- drai tu|cie- * lo,|ma sta- ra|
 A2 B2 c3 c | c2 B2 A4 | ^G2 ^F2 F2 F2 | ^G2 A4 G2 | A8 :| %17
w: ti di la- gri-|me li ba-|gni, di la- gri-|me li ba-|gni.|
w: sem- pre trà la|fiam- ma'el ge-|lo, la fiam- mael|ge- * *|lo.|
V:3
"^3)""^1)""^4)" A8 | d4 f2 e2- | e2 A2 e4 | A4 z4 | z2 A2 c3 d | e2 c2 d2 A2 | d3 c B4 | A8 :: %8
w: Cor|mio do- len-|* t'è tri-|sto,|và con la|Ma- da- le- n'à|piè di Chri-|sto.|
w: Gran|ma- l'è vi-|* ver sem-|pre,|sen- za mo-|rir in do- lo-|ro- se tem-|pre,|
 e4 e4 | e2 A4 E2 | F4 E4 | z2 e2 A2 a2 | f2 g2 c3 c | c2 G2 A4 | e2 d2 d2 d2 | e2 f2 e4 | A8 :| %17
w: I- bi|t'as- si- d'et|pia- gni,|fin che tut-|ti di la- gri-|me li ba-|gni, di la- gri-|me li ba-|gni.|
w: Ma piu|mi duol ch'à|tor- to,|Si- gnor mio|dol- ce'io t'ho fe-|ri- to mor-|to, fe- ri- to|mor- * *|to.|

